X:50
T:Whiskey Before Breakfast
M:2/2
L:1/8
K:D
"D"ABde d2 de|f2 bf abaf|"G"g2 bg f2 "D"af|"A"edef edBG|
"D"ABde d2 de|f2 bf abaf|"G"g2 bg "D"fgaf|1"A"edef "D"d2 dB:|2"A"edef "D
"d2 dB||:
"D"A2 B2 d2 cd|"A"efed cB A2|e2 ef e2 ef|gfed cABc|
"D"d2 fd "A"c2 ec|"G"BABc "D"dBAF|"G"G2 BG "D"F2 AF|1"A"EDEF "D"D2 dB:|2
"A"EDEF "D"D2 z2||
